X:1
T:Song of the Volga
T:Эй, ухнем 
T:Эх ты, Волга, мать-река!
%%score 1 2 3
L:1/8
Q:1/4=75
M:4/4
K:Eb
V:1 bass nm="Euphonium" snm="Euph."
V:2 bass nm="Euphonium" snm="Euph."
V:3 bass nm="Euphonium" snm="Euph."
V:1
 z8 | z8 |[Q:1/4=75] z8 | z8 | z8 | z8 | z8 | z8 | z8 | z8 |!mp! B,,3 B,, B,,4 | z8 | %12
!mp! B,,3 B,, B,,4 | z8 | z8 | z8 | z8 | z8 |!mf! B,G, C2 G,4 |!<(! B,G, C2 G,4!<)! | %20
!f! B,2 E2 DE/D/ C2 | B,G, C2 G,4 | B,3 B, B,A,G,F, | E,2 B,2 G,4 |!f! B,3 B, B,A,G,F, | %25
 E,2 B,2 G,4 | C2 CC G,2 G,2 | E2 DC B,2 G,2 | C2 E2 D2 C2 |!<(! B,G, C2 G4-!<)! | G8- | %31
!<(! G8!<)! |!ff! G2 G2 FDEC | B,G, C2 G,4 |!fff! B,3 B, B,A,G,F, | E,2 B,2 G,4 | B,3 B, B,A,G,F, | %37
 E,2 B,2 G,4 | C2 CC G,2 G,2 | E2 DC B,2 G,2 |!>(! C2 E2 D2 C2!>)! |!>(! B,G, C2 G,4!>)! | z8 | %43
 z8 | z8 | z8 | z8 | z8 | z8 |] %49
V:2
 z8 | z8 |!mf!"^espressivo" B,,G,, C,2 G,,4 | B,,G,, C,2 G,,4 | B,,2 E,2 D,E,/D,/ C,2 | %5
 B,,G,,!>(! C,2 G,,4!>)! |!p! B,,G,, C,2 G,,4 | B,,G,, C,2 G,,4 | B,,2 E,2 D,E,/D,/ C,2 | %9
 B,,!<(!G,,C,C, G,,4!<)! |!mf! B,,3 B,, B,,A,,G,,F,, | E,,2 B,,2 G,,4 |!mf! B,,3 B,, B,,A,,G,,F,, | %13
 E,,2 B,,2 G,,4 | C,2 C,C, G,,2 G,,2 | E,2 D,C, B,,2 G,,2 | C,2 E,2 D,2 C,2 | B,,G,, C,2 G,4- | %18
 G,8- |!<(! G,8!<)! |!f! G,2 G,2 F,D,E,C, | B,,G,, C,2 D,4 |!mf! F,8 | E,8 | F,8 | E,8 |!mp! E,8 | %27
 E,8 | A,8 | z4!<(! D4!<)! |!ff! B,G, C2 G,4 |!<(! B,G, C2 G,4!<)! | B,2 E2 DE/D/ C2 | %33
 B,G, C2 D,4 |!f! F,8 | E,2 G,2 E,4 | F,8 | E,2 G,2 D4 | C,2 C,C, D,2 D,2 | E,2 E,E, D,2 D,2 | z8 | %41
 z8 |!mf! G,2- G,3 G,G,G, |!>(! G,2- G,3 G,G,G,!>)! |"^molto diminuendo"!>(! G,8!>)! | z8 | z8 | %47
 z8 | z8 |] %49
V:3
!mp! .C,,2 .A,,2 .G,,.A,,/.G,,/ .F,,2 | .C,,2 .A,,2!>(! .G,,.A,,/.G,,/ .F,,2!>)! | %2
"^pizzicato"!p! .C,,2 .A,,2 .G,,.A,,/.G,,/ .F,,2 | .C,,2 .A,,2 .G,,.A,,/.G,,/ .F,,2 | %4
 B,,,2 A,,2 G,,2 =E,,2 | C,,2!>(! A,,2 G,,4!>)! |!pp! .C,,2 .A,,2 .G,,.A,,/.G,,/ .F,,2 | %7
 .C,,2 .A,,2 .G,,.A,,/.G,,/ .F,,2 | B,,,2 A,,2 G,,2 =E,,2 | C,,2!>(! A,,2 G,,4!>)! | G,,3 z z4 | %11
 z4 z!mf! C,,/D,,/ E,,C,, | G,,3 z z4 | z4 z C,,/D,,/ E,,C,, |!mp! A,,4 D,,4 | A,,4 D,,4 | %16
 A,,4 A,,4 | z4 D,4- | D,8- |!<(! D,8!<)! |!f! B,,,2 A,,2 G,,2 E,,2 | z4 G,,4 |!mf! B,,8 | %23
 E,,2 B,,2 G,,4 | B,,8 | E,,2 B,,2 G,,4 | A,,4 C,4 | A,,4 C,4 | A,,4 C,4 | z4!mf!!mf!!<(! B,4!<)! | %30
!ff! B,,G,, C,2 G,,4 |!<(! B,,G,, C,2 G,,4!<)! | B,,2 E,2 D,E,/D,/ C,2 | B,,G,, C,2 B,,4 | %34
!ff! B,,,8 | B,,,4 z C,,/D,,/ E,,C,, | B,,,8 | B,,,4 z C,,/D,,/ E,,C,, |!mf! A,,4 D,,4 | %39
 A,,4 D,,4 | A,,4 D,,4 | z8 |!mf! B,,G,, C,2 G,,4 | B,,G,, C,2 G,,4 | B,,2 E,2 D,E,/D,/ C,2 | %45
"^molto ritardando" B,,G,,!>(! C,2 G,,4!>)! | B,,G,, C,2 G,,4 | B,,G,, C,,6 | !fermata!G,,,8 |] %49

